X: 3415
T: Besom Brush, The
R: slip jig
M: 9/8
K: Gmajor
|:B2 d d2 B c2 A|B2 d d2 B c3|B2 d d2 B c2 A|G2 F G2 A B3:|
|:c2 A A2 G F2 D|D2 G G2 A B2 d|c2 A A2 G F2 D|D2 G G2 F G2 A:|

